assets/nederlandsespoorwegen/original.svg

<svg fill="#003082" viewBox="0 0 24 24" xmlns="http://www.w3.org/2000/svg"><path d="m10.494 11.812a2.6 2.6 0 0 0 -1.835-.751h-5.083l1.884-1.877h4.753a.76.76 0 0 1 .516.234l2.777 2.77a2.6 2.6 0 0 0 1.835.75h5.084l-1.884 1.878h-4.752a.76.76 0 0 1 -.516-.235zm1.459 4.083a2.86 2.86 0 0 0 1.835.798h5.506l4.706-4.693-4.706-4.694h-2.634l3.764 3.755h-5.082a1 1 0 0 1 -.516-.188l-2.778-2.769a2.86 2.86 0 0 0 -1.835-.798h-5.507l-4.706 4.694 4.706 4.693h2.634l-3.763-3.753h5.082a1 1 0 0 1 .516.187z"/></svg>

<svg xmlns="http://www.w3.org/2000/svg" fill="#003082" viewBox="0 0 24 24"><path d="M10.494 11.812a2.6 2.6 0 0 0-1.835-.751H3.576L5.46 9.184h4.753a.76.76 0 0 1 .516.234l2.777 2.77a2.6 2.6 0 0 0 1.835.75h5.084l-1.884 1.878h-4.752a.76.76 0 0 1-.516-.235zm1.459 4.083a2.86 2.86 0 0 0 1.835.798h5.506L24 12l-4.706-4.694H16.66l3.764 3.755h-5.082a1 1 0 0 1-.516-.188l-2.778-2.769a2.86 2.86 0 0 0-1.835-.798H4.706L0 12l4.706 4.693H7.34L3.577 12.94h5.082a1 1 0 0 1 .516.187z"/></svg>
